static/assets/infographics/Icon_barrel.svg

<svg id='Layer_1' xmlns='http://www.w3.org/2000/svg' viewBox='0 0 42 52'><style>.st0{fill:#6d6e71}</style><path class='st0' d='M24.3 3.6c2.8 0 5.1.7 5.1 1.7 0 .9-2.3 1.7-5.1 1.7s-5.1-.7-5.1-1.7 2.3-1.7 5.1-1.7zm0 0M1.9 40.6c.5 1.3 1.1 2.5 1.9 3.8v1.2c0 4.2 8.6 6.4 17.2 6.4 8.5 0 17.2-2.2 17.2-6.4v-1.2c.8-1.3 1.4-2.5 1.9-3.8-4.4 2.1-11.8 3.2-19.1 3.2s-14.7-1-19.1-3.2zm0 0'/><path class='st0' d='M.3 34.3c.1 1 .3 2.1.5 3.1 2.4 2.1 9.6 4.3 20.1 4.3 10.5 0 17.7-2.2 20.1-4.3.2-1 .4-2.1.5-3.1-4.9 2.1-12.8 3.1-20.7 3.1-7.7 0-15.6-1-20.5-3.1zm0 0M3.8 6.3c0 .1 0 .1 0 0C2.7 8.2 2 9.9 1.4 11.6c1.5 2.3 8.7 4.9 19.6 4.9 10.9 0 18.1-2.6 19.6-4.9-.6-1.7-1.3-3.4-2.4-5.2v-.1C38.2 2.2 29.6 0 21 0 12.5 0 3.8 2.2 3.8 6.3zm32.2 0c0 1.7-5.8 4.1-15 4.1-9.1.1-15-2.4-15-4.1 0-1.7 5.8-4.1 15-4.1s15 2.5 15 4.1zm0 0'/><path class='st0' d='M.8 14.1c-.7 3.1-.8 6.3-.8 9.7v3.4c0 1.6 0 3.1.1 4.6C3.6 33.6 11 35.3 21 35.3c10.1 0 17.4-1.6 20.9-3.4.1-1.5.1-3.1.1-4.6v-3.4c0-3.4-.1-6.5-.8-9.7-3.7 3-12.1 4.6-20.3 4.6-8-.1-16.5-1.7-20.1-4.7zm0 0'/></svg>

<?xml version="1.0" encoding="utf-8"?>
<!-- Generator: Adobe Illustrator 19.2.0, SVG Export Plug-In . SVG Version: 6.00 Build 0)  -->
<svg version="1.1" id="Layer_1" xmlns="http://www.w3.org/2000/svg" xmlns:xlink="http://www.w3.org/1999/xlink" x="0px" y="0px"
	 viewBox="0 0 42 52" style="enable-background:new 0 0 42 52;" xml:space="preserve">
<style type="text/css">
	.st0{fill:#6D6E71;}
</style>
<g>
	<path class="st0" d="M24.3,3.6c2.8,0,5.1,0.7,5.1,1.7c0,0.9-2.3,1.7-5.1,1.7c-2.8,0-5.1-0.7-5.1-1.7C19.2,4.3,21.5,3.6,24.3,3.6
		L24.3,3.6z M24.3,3.6"/>
	<path class="st0" d="M1.9,40.6c0.5,1.3,1.1,2.5,1.9,3.8v1.2c0,4.2,8.6,6.4,17.2,6.4c8.5,0,17.2-2.2,17.2-6.4v-1.2
		c0.8-1.3,1.4-2.5,1.9-3.8c-4.4,2.1-11.8,3.2-19.1,3.2S6.3,42.8,1.9,40.6L1.9,40.6z M1.9,40.6"/>
	<path class="st0" d="M0.3,34.3c0.1,1,0.3,2.1,0.5,3.1c2.4,2.1,9.6,4.3,20.1,4.3c10.5,0,17.7-2.2,20.1-4.3c0.2-1,0.4-2.1,0.5-3.1
		c-4.9,2.1-12.8,3.1-20.7,3.1C13.1,37.4,5.2,36.4,0.3,34.3L0.3,34.3z M0.3,34.3"/>
	<path class="st0" d="M3.8,6.3C3.8,6.4,3.8,6.4,3.8,6.3C2.7,8.2,2,9.9,1.4,11.6c1.5,2.3,8.7,4.9,19.6,4.9c10.9,0,18.1-2.6,19.6-4.9
		c-0.6-1.7-1.3-3.4-2.4-5.2c0,0,0-0.1,0-0.1C38.2,2.2,29.6,0,21,0C12.5,0,3.8,2.2,3.8,6.3L3.8,6.3z M36,6.3c0,1.7-5.8,4.1-15,4.1
		C11.9,10.5,6,8,6,6.3c0-1.7,5.8-4.1,15-4.1C30.2,2.2,36,4.7,36,6.3L36,6.3z M36,6.3"/>
	<path class="st0" d="M0.8,14.1C0.1,17.2,0,20.4,0,23.8l0,3.4c0,1.6,0,3.1,0.1,4.6c3.5,1.8,10.9,3.5,20.9,3.5
		c10.1,0,17.4-1.6,20.9-3.4c0.1-1.5,0.1-3.1,0.1-4.6v-3.4c0-3.4-0.1-6.5-0.8-9.7c-3.7,3-12.1,4.6-20.3,4.6
		C12.9,18.7,4.4,17.1,0.8,14.1L0.8,14.1z M0.8,14.1"/>
</g>
</svg>
